!!!OTL: IM SOMMER GEHT MEIN TRAUER AN
!!!ARE: Europa, Mitteleuropa, Deutschland, Dillenburg; Heringen
!!!SCT: B0466
!!!YEM: Copyright 1995, estate of Helmut Schaffrath.
**kern
*ICvox
*Ivox
*M4/4
*k[b-]
*F:
{8c
=1
4.f
8g
4.a
8f
=2
4a
8b-
8dd
4.cc}
{16cc
16b-
=3
4a
4dd
4.cc
8b-
=4
4b-
4a
4.r}
{8cc
=5
4a
4cc
4a
8cc
8ff
=6
8.dd
16cc
8b-
8dd
4cc
8r}
{16cc
16b-
=7
4a
4cc
4cc
8b-
8a
=8
8g
8b-
4a
4.r}
{8cc
=9
4a
4cc
4a
8cc
8ff
=10
8.dd
16cc
8b-
8dd
4cc
8r}
{16cc
16b-
=11
4a
4cc
4cc
8b-
8a
=12
8g
8b-
4a
4.r}
==
!!!AGN: Liebes - Lied, Leid, Klage
!!!ONB: ESAC (Essen Associative Code) Database: BOEHME
!!!AMT: simple quadruple
!!!AIN: vox
!!!EED: Helmut Schaffrath
!!!EEV: 1.0
*-
